svgs/light/unicorn.svg

<svg xmlns="http://www.w3.org/2000/svg" viewBox="0 0 640 512"><!--! Font Awesome Pro 6.0.0-alpha3 by @fontawesome - https://fontawesome.com License - https://fontawesome.com/license (Commercial License) --><path d="M632 64h-97c5.721-10.11 8.625-22.03 8.213-34.2C542.7 13.03 528 0 511.3 0h-111.3c-69.13 0-125.4 55.25-127.6 123.9V128H160C124.6 128 93.87 147.4 77.25 176.1C34.43 177.7 0 212.7 0 256v48C0 312.8 7.199 320 16 320S32 312.8 32 304V256c0-21.34 14.08-39.18 33.36-45.43c-.1973 1.391-.2891 2.809-.4258 4.217C64.41 217.5 64 220.1 64 224c0 32 8.876 50.75 24.5 68.62l-21.93 74.42c-3.123 10.6-3.406 21.83-.8242 32.58l18.17 75.59C89.11 496.8 108.4 512 130.6 512h24.35c31.28 0 54.21-29.44 46.53-59.77l-16.59-65.6l19.25-53.75l51.88 11.5V464c0 26.4 21.6 48 47.1 48h32.01c26.4 0 48-21.6 48-48v-140.3c20.5-21.5 32-49.75 32-79.5v-50.5l14.5 21.75c19.13 28.62 50 20.62 55.5 18.75l25.5-8.625c19.43-6.57 32.5-24.79 32.5-45.3l.0003-64.95l92.38-36.75C643 74.25 639.9 64 632 64zM512 180.1c0 6.875-4.375 13-10.88 15.12L475.6 204c-9.25 3.25-16.12-2.75-18.5-6.25L432 160l-48-16v100.3c0 26.62-12.63 50.13-32 65.5L352 464c0 8.836-7.164 16-16 16h-32c-8.836 0-16-7.164-16-16V318.8L183.6 295.5L151.5 385l18.97 75.08C173 470.2 165.4 480 154.1 480H130.6c-7.396 0-13.83-5.068-15.56-12.26l-18.18-75.62c-1.289-5.367-1.146-10.98 .418-16.27L124.9 282.5C107.5 270.4 96 256 96 224c0-35.28 28.72-64 64-64h144L304 128c0-53.02 42.98-96 96-96h111.3c0 13.25-8.125 24.62-19.63 29.5l20.38 24.75V180.1zM448 80c-8.875 0-16 7.125-16 16s7.127 16 16 16s16-7.125 16-16S456.9 80 448 80z"/></svg>

<svg xmlns="http://www.w3.org/2000/svg" viewBox="0 0 640 512"><!-- Font Awesome Pro 6.0.0-alpha2 by @fontawesome - https://fontawesome.com License - https://fontawesome.com/license (Commercial License) --><path d="M632.021 64H535.018L534.893 63.75C540.613 53.641 543.643 41.973 543.23 29.805C542.66 13.033 528.049 0 511.268 0H400.014C330.887 0 274.635 55.25 272.385 123.875V128H160C124.508 128 93.807 147.58 77.193 176.293C34.375 177.805 0 212.744 0 256V304C0 312.801 7.199 320 16 320S32.002 312.799 32.002 304V256C32.002 234.656 46.078 216.82 65.357 210.57C65.16 211.961 65.068 213.379 64.932 214.787C64.406 217.547 64 220.053 64 224C64 256 72.877 274.75 88.504 292.625L66.576 367.047C63.453 377.646 63.17 388.881 65.752 399.625L83.924 475.219C89.111 496.793 108.408 512 130.596 512H154.941C186.223 512 209.146 482.557 201.475 452.229L184.881 386.625L204.131 332.875L256.008 344.375V464C256.008 490.4 277.607 512 304.008 512H336.014C362.414 512 384.014 490.4 384.014 464V323.75C404.514 302.25 416.014 274 416.014 244.25V193.75L430.514 215.5C449.641 244.125 480.516 236.125 486.016 234.25L511.518 225.625C530.943 219.055 544.018 200.83 544.018 180.324V115.375L636.396 78.625C643.021 74.25 639.896 64 632.021 64ZM512.018 180.125C512.018 187 507.643 193.125 501.143 195.25L475.641 204C466.391 207.25 459.516 201.25 457.141 197.75L432.014 160L384.014 144V244.25C384.014 270.875 371.387 294.375 352.012 309.75V464C352.012 472.836 344.848 480 336.012 480H304.01C295.174 480 288.01 472.836 288.01 464V318.75L183.631 295.5L151.506 385L170.475 460.08C173.027 470.189 165.387 480 154.961 480H130.613C123.217 480 116.785 474.932 115.057 467.74L96.879 392.125C95.59 386.758 95.732 381.148 97.297 375.855L124.879 282.5C107.504 270.375 96 256 96 224C96 188.719 124.719 160 160 160H304.01V128C304.01 74.98 346.99 32 400.01 32H511.268C511.268 45.25 503.143 56.625 491.641 61.5L512.018 86.25V180.125ZM448.016 80C439.141 80 432.014 87.125 432.014 96S439.141 112 448.016 112S464.016 104.875 464.016 96S456.891 80 448.016 80Z"/></svg>
